X:1
T:Bennington, 11.11.11 D
T:Bennington, 11.11.11 D
T:Frank Claude Huston, 1917
T:Public Domain Courtesy of the Cyber Hymnal™
C:Frank Claude Huston, 1917
Z:Public Domain
Z:Courtesy of the Cyber Hymnal™
%%score ( 1 2 ) ( 3 4 )
L:1/8
Q:1/4=95
M:4/4
K:Bb
V:1 treble 
V:2 treble 
V:3 bass 
V:4 bass 
V:1
 [DF]>[DF] [EG]>[DF] [Fd]2 [DB]2 | [EG]>[EG] [EG]>[EB] [EG]2 [DF]2 | %2
 [B,D]>[DF] [FB]>[Fc] [Fd]2 [FB]2 | [=EB]>[EA] [EB]>[Ed] [Fc]4 | [Fd]>[Fd] [Fd]>[Ge] [Fd]2 [DB]2 | %5
 [B,D]>[CE] [DF]>[EG] [DF]4 | [EG]>[EA] [FB]>[Fc] [Fd]>[Fe] [Fd]>[Gc] | .[EB]2 A2 .[DB]4 | %8
 [Fc]>[Fc] [Fc]>[Fd] [Fc]2 F2 | [DF]>[DF] [FB]>[Fc] [Fd]4 | [Fc]>[Fc] [Fc]>[Fd] [Fc]2 [FA]2 | %11
 [=EG]>[GB] [FA]>[EG] F4 | [Fd]>[Fd] [Fd]>[Ge] [Fd]2 [DB]2 | [B,D]>[CE] [DF]>[EG] [DF]4 | %14
 [EG]>[EA] [FB]>[Fc] [Fd]>[Fe] [Fd]>[Gc] | .[EB]2 A2 .[DB]4 |] %16
V:2
 x8 | x8 | x8 | x8 | x8 | x8 | x8 | x2 (.F.E) x4 | x6 (FE) | x8 | x8 | x4 F4 | x8 | x8 | x8 | %15
 x2 (.F.E) x4 |] %16
V:3
 [B,,B,]>[B,,B,] [B,,B,]>[B,,B,] [B,,B,]2 [B,,B,]2 | [E,B,]>[E,B,] [E,B,]>[E,G,] [B,,B,]4 | %2
 [B,,F,]>[B,,B,] [D,B,]>[F,A,] B,2 [B,,D]2 | [C,C]>[C,C] [C,G,]>[C,B,] [F,A,]4 | %4
 [B,,B,]>[B,,B,] [B,,B,]>[B,,B,] [B,,B,]2 [B,,B,]2 | [B,,F,]>[B,,F,] [B,,F,]>[B,,F,] [B,,B,]4 | %6
 [E,B,]>[C,C] [D,B,]>[F,A,] B,>[C,A,] [D,B,]>[E,B,] | .[F,D]2 .[F,,F,C]2 .[B,,B,]4 | %8
 [F,A,]>[F,A,] [F,A,]>[F,B,] [F,A,]2 [F,A,]2 | [B,,B,]>[B,,B,] [D,B,]>[F,A,] B,4 | %10
 [F,A,]>[F,A,] [F,A,]>[F,B,] [F,A,]2 [F,C]2 | [C,C]>[C,C] [C,C]>[C,B,] [F,A,]4 | %12
 [B,,B,]>[B,,B,] [B,,B,]>[B,,B,] [B,,B,]2 [B,,F,]2 | [B,,F,]>[B,,F,] [B,,B,]>.[B,,B,] [B,,B,]4 | %14
 [E,B,]>[C,C] [D,B,]>[F,A,] B,>[C,A,] [D,B,]>[E,B,] | .[F,D]2 .[F,,F,C]2 .[B,,B,]4 |] %16
V:4
 x8 | x8 | x4 B,2 x2 | x8 | x8 | x8 | x4 B,3/2 x5/2 | x8 | x8 | x4 B,4 | x8 | x8 | x8 | x8 | %14
 x4 B,3/2 x5/2 | x8 |] %16

